plasma/desktoptheme/Materia/icons/mellowplayer.svg

<?xml version="1.0" encoding="UTF-8"?>
<svg width="32" height="32" version="1.1" xmlns="http://www.w3.org/2000/svg">
 <g id="22-22-mellowplayer">
  <rect x="32" y="10" width="22" height="22" opacity=".001"/>
  <path d="m41 13a5 5 0 0 0-5 5 5 5 0 0 0 0.305 1.687 3 3 0 0 1 2.695-1.687 3 3 0 0 1 6e-3 0v-2.596s-0.023-0.266 0.185-0.371c0.203-0.101 0.397 0.061 0.397 0.061l1.969 1.17a3 3 0 0 1 2.443-1.264 3 3 0 0 1 1.152 0.232 5 5 0 0 0-4.152-2.232zm5.24 3.008a3 3 0 0 1 0.76 1.992 3 3 0 0 1-0.309 1.318l2.026 1.205s0.283 0.14 0.283 0.473c0 0.334-0.287 0.443-0.287 0.443l-2.035 1.209a3 3 0 0 1 0.322 1.352 3 3 0 0 1-0.758 1.988 5 5 0 0 0 4.758-4.988 5 5 0 0 0-4.76-4.992zm-9.937 6.295a5 5 0 0 0-0.303 1.697 5 5 0 0 0 5 5 5 5 0 0 0 4.158-2.232 3 3 0 0 1-1.158 0.232 3 3 0 0 1-2.465-1.295l-2.06 1.225s-0.14 0.122-0.319 0.043c-0.203-0.091-0.15-0.323-0.15-0.323v-2.65a3 3 0 0 1-6e-3 0 3 3 0 0 1-2.697-1.697z" fill="#dfdfdf"/>
  <path d="m44 15a3 3 0 0 0-2.443 1.266l2.672 1.587 2.464 1.467a3 3 0 0 0 0.307-1.32 3 3 0 0 0-3-3zm-5 3a3 3 0 0 0-3 3 3 3 0 0 0 3 3 3 3 0 0 0 6e-3 0v-6a3 3 0 0 0-6e-3 0zm7.676 4.65-2.457 1.459-2.686 1.596a3 3 0 0 0 2.467 1.295 3 3 0 0 0 3-3 3 3 0 0 0-0.324-1.35z" fill="#dfdfdf" opacity=".35"/>
 </g>
 <g id="mellowplayer">
  <rect width="32" height="32" opacity=".001"/>
  <path d="M 11.5,3 A 8.5,8.5 0 0 0 3,11.5 8.5,8.5 0 0 0 5.0254,16.994 8.5,8.5 0 0 0 3,22.5 8.5,8.5 0 0 0 11.5,31 8.5,8.5 0 0 0 19.654,24.877 8,8 0 0 0 21,25 8,8 0 0 0 29,17 8,8 0 0 0 21,9 8,8 0 0 0 19.652,9.1152 8.5,8.5 0 0 0 11.5,3 Z" opacity=".2"/>
  <circle cx="21" cy="16" r="8" fill="#5f81d4"/>
  <circle cx="11.5" cy="10.5" r="8.5" fill="#5f81d4"/>
  <path d="M 11.5,2 A 8.5,8.5 0 0 0 3,10.5 8.5,8.5 0 0 0 3.0215,10.914 8.5,8.5 0 0 1 11.5,3 8.5,8.5 0 0 1 19.652,9.1152 8,8 0 0 1 21,9 8,8 0 0 1 28.979,16.576 8,8 0 0 0 29,16 8,8 0 0 0 21,8 8,8 0 0 0 19.652,8.1152 8.5,8.5 0 0 0 11.5,2 Z" fill="#fff" opacity=".2"/>
  <circle cx="11.5" cy="21.5" r="8.5" fill="#5f81d4"/>
  <path d="m17 7a5 5 0 0 0-5 5 5 5 0 0 0 5 5 5 5 0 0 0 5-5 5 5 0 0 0-5-5zm0 10a5 5 0 0 0-5 5 5 5 0 0 0 5 5 5 5 0 0 0 5-5 5 5 0 0 0-5-5zm-9-5a5 5 0 0 0-5 5 5 5 0 0 0 5 5 5 5 0 0 0 5-5 5 5 0 0 0-5-5z" opacity=".2"/>
  <circle cx="8" cy="16" r="5" fill="#f2f2f2"/>
  <circle cx="17" cy="21" r="5" fill="#f2f2f2"/>
  <circle cx="17" cy="11" r="5" fill="#f2f2f2"/>
  <path d="m8.3264 7.0558c0.3438-0.1695 0.6742 0.1012 0.6742 0.1012l7.8884 4.599 7.628 4.451s0.483 0.232 0.483 0.787c0 0.557-0.487 0.738-0.487 0.738l-15.708 9.15s-0.2353 0.206-0.5386 0.074c-0.3463-0.152-0.2562-0.538-0.2562-0.538v-18.744c5e-4 0-0.0381-0.4434 0.3158-0.618z" opacity=".2"/>
  <path d="m8.3264 6.0558c0.3438-0.1695 0.6742 0.1012 0.6742 0.1012l7.8884 4.599 7.628 4.451s0.483 0.232 0.483 0.787c0 0.557-0.487 0.738-0.487 0.738l-15.708 9.15s-0.2353 0.206-0.5386 0.074c-0.3463-0.152-0.2562-0.538-0.2562-0.538v-18.744c5e-4 0-0.0381-0.4434 0.3158-0.618z" fill="#ffbf00"/>
 </g>
</svg>

<svg xmlns="http://www.w3.org/2000/svg" width="32" height="32" x="0" y="0" version="1.1">
 <g id="22-22-mellowplayer">
  <rect style="opacity:0.001" width="22" height="22" x="32" y="10"/>
  <path style="fill:#dfdfdf" d="M 41,13 A 5,5 0 0 0 36,18 5,5 0 0 0 36.305,19.687 3,3 0 0 1 39,18 3,3 0 0 1 39.006,18 V 15.404 C 39.006,15.404 38.983,15.138 39.191,15.033 39.394,14.932 39.588,15.094 39.588,15.094 L 41.557,16.264 A 3,3 0 0 1 44,15 3,3 0 0 1 45.152,15.232 5,5 0 0 0 41,13 Z M 46.24,16.008 A 3,3 0 0 1 47,18 3,3 0 0 1 46.691,19.318 L 48.717,20.523 C 48.717,20.523 49,20.663 49,20.996 49,21.33 48.713,21.439 48.713,21.439 L 46.678,22.648 A 3,3 0 0 1 47,24 3,3 0 0 1 46.242,25.988 5,5 0 0 0 51,21 5,5 0 0 0 46.24,16.008 Z M 36.303,22.303 A 5,5 0 0 0 36,24 5,5 0 0 0 41,29 5,5 0 0 0 45.158,26.768 3,3 0 0 1 44,27 3,3 0 0 1 41.535,25.705 L 39.475,26.93 C 39.475,26.93 39.335,27.052 39.156,26.973 38.953,26.882 39.006,26.65 39.006,26.65 V 24 A 3,3 0 0 1 39,24 3,3 0 0 1 36.303,22.303 Z"/>
  <path style="opacity:0.35;fill:#dfdfdf" d="M 44,15 A 3,3 0 0 0 41.557,16.266 L 44.229,17.853 46.693,19.32 A 3,3 0 0 0 47,18 3,3 0 0 0 44,15 Z M 39,18 A 3,3 0 0 0 36,21 3,3 0 0 0 39,24 3,3 0 0 0 39.006,24 V 20.982 18 A 3,3 0 0 0 39,18 Z M 46.676,22.65 44.219,24.109 41.533,25.705 A 3,3 0 0 0 44,27 3,3 0 0 0 47,24 3,3 0 0 0 46.676,22.65 Z"/>
 </g>
 <g id="mellowplayer">
  <rect style="opacity:0.001" width="32" height="32" x="0" y="0"/>
  <g>
   <path style="opacity:0.2" d="M 11.5,3 A 8.5,8.5 0 0 0 3,11.5 8.5,8.5 0 0 0 5.0254,16.994 8.5,8.5 0 0 0 3,22.5 8.5,8.5 0 0 0 11.5,31 8.5,8.5 0 0 0 19.654,24.877 8,8 0 0 0 21,25 8,8 0 0 0 29,17 8,8 0 0 0 21,9 8,8 0 0 0 19.652,9.1152 8.5,8.5 0 0 0 11.5,3 Z"/>
   <circle style="fill:#5f81d4" cx="21" cy="16" r="8"/>
   <circle style="fill:#5f81d4" cx="11.5" cy="10.5" r="8.5"/>
   <path style="opacity:0.2;fill:#ffffff" d="M 11.5,2 A 8.5,8.5 0 0 0 3,10.5 8.5,8.5 0 0 0 3.0215,10.914 8.5,8.5 0 0 1 11.5,3 8.5,8.5 0 0 1 19.652,9.1152 8,8 0 0 1 21,9 8,8 0 0 1 28.979,16.576 8,8 0 0 0 29,16 8,8 0 0 0 21,8 8,8 0 0 0 19.652,8.1152 8.5,8.5 0 0 0 11.5,2 Z"/>
   <circle style="fill:#5f81d4" cx="11.5" cy="21.5" r="8.5"/>
   <path style="opacity:0.2" d="M 17,7 A 5,5 0 0 0 12,12 5,5 0 0 0 17,17 5,5 0 0 0 22,12 5,5 0 0 0 17,7 Z M 17,17 A 5,5 0 0 0 12,22 5,5 0 0 0 17,27 5,5 0 0 0 22,22 5,5 0 0 0 17,17 Z M 8,12 A 5,5 0 0 0 3,17 5,5 0 0 0 8,22 5,5 0 0 0 13,17 5,5 0 0 0 8,12 Z"/>
   <circle style="fill:#f2f2f2" cx="8" cy="16" r="5"/>
   <circle style="fill:#f2f2f2" cx="17" cy="21" r="5"/>
   <circle style="fill:#f2f2f2" cx="17" cy="11" r="5"/>
   <path style="opacity:0.2" d="M 8.3264,7.0558 C 8.6702,6.8863 9.0006,7.157 9.0006,7.157 L 16.889,11.756 24.517,16.207 C 24.517,16.207 25,16.439 25,16.994 25,17.551 24.513,17.732 24.513,17.732 L 16.872,22.183 8.8054,26.882 C 8.8054,26.882 8.5701,27.088 8.2668,26.956 7.9205,26.804 8.0106,26.418 8.0106,26.418 V 16.97 7.6738 C 8.0111,7.6738 7.9725,7.2304 8.3264,7.0558 Z"/>
   <path style="fill:#ffbf00" d="M 8.3264,6.0558 C 8.6702,5.8863 9.0006,6.157 9.0006,6.157 L 16.889,10.756 24.517,15.207 C 24.517,15.207 25,15.439 25,15.994 25,16.551 24.513,16.732 24.513,16.732 L 16.872,21.183 8.8054,25.882 C 8.8054,25.882 8.5701,26.088 8.2668,25.956 7.9205,25.804 8.0106,25.418 8.0106,25.418 V 15.97 6.6738 C 8.0111,6.6738 7.9725,6.2304 8.3264,6.0558 Z"/>
  </g>
 </g>
</svg>
